Newaita-dark/actions/16/view-sort.svg

<svg height="16" viewBox="0 0 16 16" width="16" xmlns="http://www.w3.org/2000/svg"><g fill="#e0e0e0"><path d="m14.222656 3.761719h-6.945312c-.183594 0-.332032-.144531-.332032-.328125v-.664063c0-.179687.148438-.328125.332032-.328125h6.945312c.183594 0 .332032.148438.332032.328125v.664063c0 .183594-.148438.328125-.332032.328125zm0 0"/><path d="m14.222656 8.726562h-6.945312c-.183594 0-.332032-.148437-.332032-.332031v-.660156c0-.183594.148438-.332031.332032-.332031h6.945312c.183594 0 .332032.148437.332032.332031v.660156c0 .183594-.148438.332031-.332032.332031zm0 0"/><path d="m14.222656 13.6875h-6.945312c-.183594 0-.332032-.148438-.332032-.332031v-.660157c0-.183593.148438-.332031.332032-.332031h6.945312c.183594 0 .332032.148438.332032.332031v.660157c0 .183593-.148438.332031-.332032.332031zm0 0"/><path d="m2.976562 12.03125h1.324219v-2.96875c0-.183594-.148437-.328125-.332031-.328125h-.660156c-.183594 0-.332032.144531-.332032.328125zm0 0"/><path d="m5.953125 11.371094h-4.628906l2.3125 3.308594zm0 0"/><path d="m2.976562 4.09375h1.324219v2.96875c0 .183594-.148437.332031-.332031.332031h-.660156c-.183594 0-.332032-.148437-.332032-.332031zm0 0"/><path d="m5.953125 4.753906h-4.628906l2.3125-3.304687zm0 0"/></g></svg>

<?xml version="1.0" encoding="UTF-8"?>
<svg xmlns="http://www.w3.org/2000/svg" xmlns:xlink="http://www.w3.org/1999/xlink" width="16px" height="16px" viewBox="0 0 16 16" version="1.1">
<g id="surface1">
<path style=" stroke:none;fill-rule:nonzero;fill:rgb(87.843138%,87.843138%,87.843138%);fill-opacity:1;" d="M 14.222656 3.761719 L 7.277344 3.761719 C 7.09375 3.761719 6.945312 3.617188 6.945312 3.433594 L 6.945312 2.769531 C 6.945312 2.589844 7.09375 2.441406 7.277344 2.441406 L 14.222656 2.441406 C 14.40625 2.441406 14.554688 2.589844 14.554688 2.769531 L 14.554688 3.433594 C 14.554688 3.617188 14.40625 3.761719 14.222656 3.761719 Z M 14.222656 3.761719 "/>
<path style=" stroke:none;fill-rule:nonzero;fill:rgb(87.843138%,87.843138%,87.843138%);fill-opacity:1;" d="M 14.222656 8.726562 L 7.277344 8.726562 C 7.09375 8.726562 6.945312 8.578125 6.945312 8.394531 L 6.945312 7.734375 C 6.945312 7.550781 7.09375 7.402344 7.277344 7.402344 L 14.222656 7.402344 C 14.40625 7.402344 14.554688 7.550781 14.554688 7.734375 L 14.554688 8.394531 C 14.554688 8.578125 14.40625 8.726562 14.222656 8.726562 Z M 14.222656 8.726562 "/>
<path style=" stroke:none;fill-rule:nonzero;fill:rgb(87.843138%,87.843138%,87.843138%);fill-opacity:1;" d="M 14.222656 13.6875 L 7.277344 13.6875 C 7.09375 13.6875 6.945312 13.539062 6.945312 13.355469 L 6.945312 12.695312 C 6.945312 12.511719 7.09375 12.363281 7.277344 12.363281 L 14.222656 12.363281 C 14.40625 12.363281 14.554688 12.511719 14.554688 12.695312 L 14.554688 13.355469 C 14.554688 13.539062 14.40625 13.6875 14.222656 13.6875 Z M 14.222656 13.6875 "/>
<path style=" stroke:none;fill-rule:nonzero;fill:rgb(87.843138%,87.843138%,87.843138%);fill-opacity:1;" d="M 2.976562 12.03125 L 4.300781 12.03125 L 4.300781 9.0625 C 4.300781 8.878906 4.152344 8.734375 3.96875 8.734375 L 3.308594 8.734375 C 3.125 8.734375 2.976562 8.878906 2.976562 9.0625 Z M 2.976562 12.03125 "/>
<path style=" stroke:none;fill-rule:nonzero;fill:rgb(87.843138%,87.843138%,87.843138%);fill-opacity:1;" d="M 5.953125 11.371094 L 1.324219 11.371094 L 3.636719 14.679688 Z M 5.953125 11.371094 "/>
<path style=" stroke:none;fill-rule:nonzero;fill:rgb(87.843138%,87.843138%,87.843138%);fill-opacity:1;" d="M 2.976562 4.09375 L 4.300781 4.09375 L 4.300781 7.0625 C 4.300781 7.246094 4.152344 7.394531 3.96875 7.394531 L 3.308594 7.394531 C 3.125 7.394531 2.976562 7.246094 2.976562 7.0625 Z M 2.976562 4.09375 "/>
<path style=" stroke:none;fill-rule:nonzero;fill:rgb(87.843138%,87.843138%,87.843138%);fill-opacity:1;" d="M 5.953125 4.753906 L 1.324219 4.753906 L 3.636719 1.449219 Z M 5.953125 4.753906 "/>
</g>
</svg>
